X:79
T:Vals i Gm
O:efter Bertil Ferneborg
Z: 1997 by John Chambers <jc@eddie.mit.edu> http://eddie.mit.edu/~jc/music/abc/
M:3/4
L:1/8
K:Gm
d2 \
|: "Gm"ga g^f ga | g4 d2 | Bc BA Bd | B3 A G2 | "D7"D2 ^F2 A2 | d2 B2 A2 |1 "Gm"G3 ABc | "D7"d4 d2 :|2 "Gm"G3 AG^F | "Gm"G4z2 :|
d2 \
|: "Gm"db b2 b2 | a4 g2 | d2 g2 g2 | d3 c B2 |  "D7"D2 ^F2 A2 | d2 B2 A2 |1 "Gm"G3 ABc | "D7"d4 d2 :|2 "Gm"G3 AG^F | "Gm"G4z2 :|
D2 \
|: "Gm"B,A, B,2 C2 | D3 EDC | B,D G^F GA | B4 Bc | d2 ga gd | B2 A2 G2 | "D7"^FG AB AF |1 D3 EDC :|2 "Gm"G4z2 :|
d2 \
|: "Gm"(3ded c2 d2 | "Cm"e3 d c2 | "(D7)"(3cdc B2 c2 | "Gm"d3 c B2 | "D7"D2 ^F2 A2 | d2 B2 A2 |1 "Gm"G3 ABc | "D7"d4 d2 :|2 "Gm"G3 AG^F | "Gm"G4z2 :|
